package/converter/svg/duotone/circle-i.svg

<svg xmlns="http://www.w3.org/2000/svg" viewBox="0 0 512 512"><!-- Font Awesome Pro 6.0.0-alpha2 by @fontawesome - https://fontawesome.com License - https://fontawesome.com/license (Commercial License) --><defs><style>.fa-secondary{opacity:.4}</style></defs><path d="M256 16C123.451 16 16 123.451 16 256S123.451 496 256 496S496 388.549 496 256S388.549 16 256 16ZM328 336C341.25 336 352 346.75 352 360S341.25 384 328 384H184C170.75 384 160 373.25 160 360S170.75 336 184 336H232V176H184C170.75 176 160 165.25 160 152S170.75 128 184 128H328C341.25 128 352 138.75 352 152S341.25 176 328 176H280V336H328Z" class="fa-secondary"/><path d="M328 176C341.25 176 352 165.25 352 152S341.25 128 328 128H184C170.75 128 160 138.75 160 152S170.75 176 184 176H232V336H184C170.75 336 160 346.75 160 360S170.75 384 184 384H328C341.25 384 352 373.25 352 360S341.25 336 328 336H280V176H328Z" class="fa-primary"/></svg>

<svg xmlns="http://www.w3.org/2000/svg" viewBox="0 0 512 512"><!--! Font Awesome Pro 6.6.0 by @fontawesome - https://fontawesome.com License - https://fontawesome.com/license (Commercial License) Copyright 2024 Fonticons, Inc. --><defs><style>.fa-secondary{opacity:.4}</style></defs><path class="fa-secondary" d="M0 256a256 256 0 1 0 512 0A256 256 0 1 0 0 256zM160 152c0-13.3 10.7-24 24-24l72 0 72 0c13.3 0 24 10.7 24 24s-10.7 24-24 24l-48 0 0 160 48 0c13.3 0 24 10.7 24 24s-10.7 24-24 24l-144 0c-13.3 0-24-10.7-24-24s10.7-24 24-24l48 0 0-160-48 0c-13.3 0-24-10.7-24-24z"/><path class="fa-primary" d="M160 152c0-13.3 10.7-24 24-24l72 0 72 0c13.3 0 24 10.7 24 24s-10.7 24-24 24l-48 0 0 160 48 0c13.3 0 24 10.7 24 24s-10.7 24-24 24l-144 0c-13.3 0-24-10.7-24-24s10.7-24 24-24l48 0 0-160-48 0c-13.3 0-24-10.7-24-24z"/></svg>
